www/assets/icons/feedback_outline.svg

<svg xmlns="http://www.w3.org/2000/svg" width="24" height="24" viewBox="0 0 24 24" fill='currentColor'><path d="M20 2H4c-1.1 0-1.99.9-1.99 2L2 22l4-4h14c1.1 0 2-.9 2-2V4c0-1.1-.9-2-2-2m0 14H5.17L4 17.17V4h16zm-9-4h2v2h-2zm0-6h2v4h-2z"/></svg>

<svg width="24" height="24" viewBox="0 0 24 24" xmlns="http://www.w3.org/2000/svg" fill='currentColor'><path d="M20 2H4C2.9 2 2.01 2.9 2.01 4L2 22L6 18H20C21.1 18 22 17.1 22 16V4C22 2.9 21.1 2 20 2ZM20 16H5.17L4 17.17V4H20V16ZM11 12H13V14H11V12ZM11 6H13V10H11V6Z"/></svg>
